ui/StatusQ/src/assets/img/icons/chatbot.svg

<svg fill="none" height="17" viewBox="0 0 16 17" width="16" xmlns="http://www.w3.org/2000/svg"><g fill="#000"><path clip-rule="evenodd" d="m8 14c3.0376 0 5.5-2.4624 5.5-5.5 0-3.03757-2.4624-5.5-5.5-5.5-3.03757 0-5.5 2.46243-5.5 5.5 0 3.0376 2.46243 5.5 5.5 5.5zm-1.55411-7.26086c-.97567.1501-1.69589.9896-1.69589 1.97674v1.56832c0 .9871.72022 1.8266 1.69589 1.9767l.33765.052c.80623.124 1.62669.124 2.43292 0l.33765-.052c.97569-.1501 1.69589-.9896 1.69589-1.9767v-1.56832c0-.98714-.7202-1.82664-1.69589-1.97674l-.33765-.05195c-.80623-.12404-1.62669-.12404-2.43292 0z" fill-rule="evenodd"/><circle cx="6.5" cy="8.5" r=".75"/><circle cx="9.5" cy="8.5" r=".75"/><path d="m8 11.25c.51765 0 .9618-.3147 1.15164-.7631.10764-.2543-.1255-.4869-.40164-.4869h-1.5c-.27614 0-.50928.2326-.40164.4869.18984.4484.63399.7631 1.15164.7631z"/><path d="m7 2.5c0-.55228.44772-1 1-1s1 .44772 1 1v2c0 .55228-.44772 1-1 1s-1-.44772-1-1z"/></g></svg>

<svg width="16" height="17" viewBox="0 0 16 17" fill="none" xmlns="http://www.w3.org/2000/svg">
<path fill-rule="evenodd" clip-rule="evenodd" d="M8 14C11.0376 14 13.5 11.5376 13.5 8.5C13.5 5.46243 11.0376 3 8 3C4.96243 3 2.5 5.46243 2.5 8.5C2.5 11.5376 4.96243 14 8 14ZM6.44589 6.73914C5.47022 6.88924 4.75 7.72874 4.75 8.71588V10.2842C4.75 11.2713 5.47022 12.1108 6.44589 12.2609L6.78354 12.3129C7.58977 12.4369 8.41023 12.4369 9.21646 12.3129L9.55411 12.2609C10.5298 12.1108 11.25 11.2713 11.25 10.2842V8.71588C11.25 7.72874 10.5298 6.88924 9.55411 6.73914L9.21646 6.68719C8.41023 6.56315 7.58977 6.56315 6.78354 6.68719L6.44589 6.73914Z" fill="black"/>
<circle cx="6.5" cy="8.5" r="0.75" fill="black"/>
<circle cx="9.5" cy="8.5" r="0.75" fill="black"/>
<path d="M8 11.25C8.51765 11.25 8.9618 10.9353 9.15164 10.4869C9.25928 10.2326 9.02614 10 8.75 10H7.25C6.97386 10 6.74072 10.2326 6.84836 10.4869C7.0382 10.9353 7.48235 11.25 8 11.25Z" fill="black"/>
<path d="M7 2.5C7 1.94772 7.44772 1.5 8 1.5C8.55228 1.5 9 1.94772 9 2.5V4.5C9 5.05228 8.55228 5.5 8 5.5C7.44772 5.5 7 5.05228 7 4.5V2.5Z" fill="black"/>
</svg>
